X: 1
T: Sandy Cameron's Reel
R: reel
C: as taught by Barbara McOwen, BHSFC 2014
S: Terry Traub's collection
L: 1/8
M: 4/4
K: Amix
|: fe |\
"A"cA A/A/A cAAa | "A"cAAc "Bm"B2 fe |\
"A"ceef edcA | "G"B=GGB "Em7"d2 :| f^g |\
"A"a2ef edcA | "A"a2e=g "D"fef^g |
"A"a2ef edcA | "G"B=GGB "Em7"d2 f^g |\
"A"a2ef edcA | "A"aee=g "D"fef^g |\
"A"aeea daca | "G"B=GGB "Em7"d2 |]
|: fe |\
"A"ceAe ceAe | "A"ceAc "Bm"B2fe |\
"A"ceef edcA | "G"B=GGB "Em7"d2 :| fe |\
"A"c/c/c ac c/c/c ec | "A"c/c/c ac c/c/c ec |
"A"c/c/c ac c/c/c ec | "G"B=GGB "Em7"d2fe |\
"A"c/c/c ac c/c/c ec | "A"c/c/c ac e2f=g |\
"D"afge "A"fdec | "G"BGGB "Em7"d2 |]
